src/images/icons/modal/savedJobs.svg

<svg xmlns="http://www.w3.org/2000/svg" viewBox="0 0 48 48"><path d="m24 28.8 2.45-5.35L31.8 21l-5.35-2.45L24 13.2l-2.45 5.35L16.2 21l5.35 2.45ZM4 36V6h40v30Zm3-3h34V9H7Zm-5 9v-3h44v3Zm5-9V9v24Z"/></svg>

<svg xmlns="http://www.w3.org/2000/svg" viewBox="0 0 48 48"><path d="M24 28.8 26.45 23.45 31.8 21 26.45 18.55 24 13.2 21.55 18.55 16.2 21 21.55 23.45ZM4 36V6H44V36ZM7 33H41V9H7ZM2 42V39H46V42ZM7 33V9V33Z" /></svg>
